dist-static/resources/themes/ie_dark/ui/unicode.svg

﻿<?xml version='1.0' encoding='UTF-8'?>
<svg viewBox="-2.07 -2 32 32" xmlns="http://www.w3.org/2000/svg" >
  <g fill="#000000" transform="translate(-2.4033, -2.3334)">
    <g transform="matrix(0.0408331863582134, 0, 0, 0.0408331863582134, 0, 0)">
      <g transform="matrix(57.1428565979004, 0, 0, 57.1428565979004, 0, 0)">
        <path d="M1.69275, 12.9793C1.54195, 12.9283 1.38785, 12.836 1.30275, 12.7468C1.21775, 12.6578 1.14955, 12.5259 1.11995, 12.3932C1.10895, 12.3442 1.10895, 12.3052 1.10795, 11.5296L1.10785, 10.717L1.36015, 10.717L1.61255, 10.717L1.61265, 11.4754C1.61275, 12.3096 1.61265, 12.2741 1.64965, 12.346C1.68665, 12.415 1.76065, 12.4671 1.84555, 12.4842C1.95035, 12.5052 2.08105, 12.4372 2.12685, 12.3369C2.15985, 12.2649 2.15885, 12.2839 2.15885, 11.4694L2.15895, 10.717L2.41355, 10.717L2.66815, 10.717L3.03985, 11.3479L3.41165, 11.9787L3.41165, 11.7023L3.41165, 11.4259L3.67595, 11.4259L3.94025, 11.4259L3.94025, 12.213L3.94025, 13L3.68265, 13L3.42495, 13L3.05015, 12.3865L2.67555, 11.773L2.67555, 12.0846C2.67555, 12.4405 2.67555, 12.4368 2.61655, 12.5524C2.52655, 12.7373 2.33115, 12.8997 2.10485, 12.9771L2.04885, 12.9961L1.90155, 12.9961L1.75445, 12.9961L1.69345, 12.9751zM5.04085, 12.9363C4.79745, 12.8983 4.58235, 12.7868 4.40935, 12.6087C4.24995, 12.4442 4.15035, 12.2496 4.11185, 12.0266C4.02785, 11.5397 4.27305, 11.058 4.71625, 10.8399C5.02695, 10.6871 5.37745, 10.6858 5.69025, 10.8399C5.91645, 10.9489 6.09375, 11.1251 6.20785, 11.3541C6.23285, 11.4051 6.27085, 11.5036 6.27785, 11.5359L6.27785, 11.5549L6.04155, 11.5549L5.80535, 11.5549L5.78735, 11.5209C5.74235, 11.4349 5.65855, 11.3446 5.56995, 11.2868C5.44605, 11.2058 5.31635, 11.1712 5.16685, 11.1786C4.99795, 11.1886 4.84365, 11.2576 4.72585, 11.3802C4.60155, 11.5095 4.54065, 11.66 4.54065, 11.8375C4.54065, 12.0274 4.60965, 12.1902 4.74395, 12.3197C4.84585, 12.4177 4.95055, 12.4714 5.09345, 12.4988C5.14145, 12.5088 5.26935, 12.5088 5.32225, 12.4988C5.52115, 12.4598 5.69155, 12.3372 5.78735, 12.1627L5.80935, 12.1227L6.04305, 12.1227C6.23115, 12.1227 6.27675, 12.1227 6.27675, 12.1327C6.27675, 12.1517 6.23175, 12.2717 6.20175, 12.333C6.04075, 12.6619 5.72525, 12.8919 5.36265, 12.9447C5.28365, 12.9567 5.11115, 12.9557 5.03615, 12.9444zM7.35375, 12.9463C7.08645, 12.9073 6.87305, 12.8021 6.69365, 12.6219C6.20215, 12.1282 6.28575, 11.3059 6.86705, 10.9162C7.19045, 10.6996 7.60765, 10.6687 7.95745, 10.8362C8.39825, 11.0466 8.64785, 11.5044 8.58525, 11.9873C8.53025, 12.413 8.22585, 12.7745 7.81585, 12.902C7.70065, 12.938 7.64865, 12.945 7.50395, 12.947C7.43095, 12.947 7.36365, 12.9478 7.35375, 12.9463zM7.61805, 12.4937C7.94645, 12.4277 8.17995, 12.1089 8.14405, 11.7748C8.11305, 11.4907 7.91995, 11.2684 7.63975, 11.1949C7.57375, 11.1779 7.44865, 11.1729 7.37475, 11.1849C7.10875, 11.2309 6.90635, 11.4167 6.83555, 11.6801C6.82155, 11.7311 6.81955, 11.7501 6.81955, 11.8374C6.81935, 11.9194 6.81955, 11.9453 6.83255, 11.9894C6.87655, 12.1636 6.97635, 12.3049 7.12425, 12.4008C7.26845, 12.4938 7.44515, 12.527 7.61785, 12.4928zM11.67955, 12.9463C11.54695, 12.9273 11.42295, 12.8903 11.32065, 12.8389C10.71245, 12.5356 10.51095, 11.7805 10.88865, 11.2192C11.04975, 10.98 11.29655, 10.8132 11.57765, 10.7537C11.92255, 10.6807 12.26555, 10.7697 12.53995, 11.0049C12.67705, 11.1221 12.79915, 11.3067 12.85915, 11.4871C12.88115, 11.5541 12.90715, 11.6619 12.90115, 11.6668C12.90115, 11.6668 12.80415, 11.7058 12.68845, 11.7508C12.57275, 11.7958 12.46325, 11.8388 12.44515, 11.8468C12.42715, 11.8568 12.16735, 11.9541 11.86835, 12.0671C11.56935, 12.1799 11.32105, 12.2742 11.31675, 12.2766C11.30675, 12.2766 11.32675, 12.2946 11.35575, 12.3256C11.44875, 12.4146 11.55475, 12.4693 11.68495, 12.4961C11.74795, 12.5091 11.86695, 12.5091 11.93375, 12.4961C12.15035, 12.4541 12.33865, 12.2989 12.42135, 12.0937L12.43835, 12.0517L12.66945, 12.0517L12.90055, 12.0517L12.89055, 12.0927C12.80855, 12.4631 12.52035, 12.7798 12.15635, 12.8994C12.03485, 12.9394 11.97255, 12.9494 11.82535, 12.9504C11.75435, 12.9513 11.68795, 12.9508 11.67805, 12.9504zM11.71555, 11.5724C12.00305, 11.4649 12.24595, 11.3741 12.25525, 11.3705L12.27225, 11.3605L12.24025, 11.3335C12.11045, 11.2224 11.95685, 11.1695 11.78465, 11.1765C11.62535, 11.1865 11.49475, 11.2335 11.37485, 11.3342C11.25765, 11.4332 11.16525, 11.6022 11.14985, 11.7469L11.14985, 11.7819L11.17285, 11.7719C11.18585, 11.7719 11.43145, 11.6759 11.71885, 11.5682zM8.73255, 11.8352L8.73255, 10.7263L9.16675, 10.7263C9.57705, 10.7263 9.60435, 10.7263 9.66685, 10.7413C9.84325, 10.7753 9.98635, 10.8343 10.12645, 10.9333C10.19945, 10.9843 10.33315, 11.1183 10.38635, 11.1931C10.43835, 11.2661 10.50875, 11.406 10.53665, 11.4916C10.65455, 11.8541 10.57865, 12.2543 10.33635, 12.5426C10.14905, 12.7658 9.87715, 12.9075 9.58275, 12.9352C9.54475, 12.9352 9.34885, 12.9452 9.12465, 12.9452L8.73255, 12.9452L8.73255, 11.8363zM9.60355, 12.4967C9.86145, 12.4437 10.05615, 12.2588 10.12485, 12.0018C10.13885, 11.9498 10.14085, 11.9328 10.14085, 11.8416C10.14085, 11.7506 10.14085, 11.7329 10.12585, 11.6819C10.07285, 11.4828 9.94955, 11.331 9.77055, 11.2436C9.73655, 11.2276 9.68255, 11.2066 9.64955, 11.1976C9.59155, 11.1826 9.58255, 11.1816 9.40185, 11.1796L9.21405, 11.1796L9.21405, 11.8479L9.21405, 12.5161L9.38685, 12.5161C9.50585, 12.5161 9.57345, 12.5061 9.60435, 12.5031zM3.41545, 10.9975L3.41545, 10.7211L3.67985, 10.7211L3.94415, 10.7211L3.94415, 10.9975L3.94415, 11.2738L3.67985, 11.2738L3.41545, 11.2738L3.41545, 10.9975zM1.03025, 5.5632L1.03025, 1L1.18045, 1L1.33065, 1L1.33065, 4.2301C1.33065, 7.8087 1.33065, 7.4829 1.36965, 7.6849C1.45765, 8.0974 1.63965, 8.5102 1.87555, 8.8336C2.06085, 9.0876 2.29445, 9.3113 2.57665, 9.5049C2.95705, 9.766 3.37995, 9.9619 3.90175, 10.1187C3.91675, 10.1187 3.49825, 10.1287 2.47625, 10.1287L1.02985, 10.1293L1.02985, 5.5663zM5.03055, 10.1111C5.53375, 10.0045 6.07265, 9.7376 6.51565, 9.3759C7.08795, 8.9083 7.44485, 8.3589 7.56365, 7.762C7.59465, 7.6051 7.59365, 7.671 7.59665, 6.394L7.59665, 5.206L9.09725, 7.6625C9.92255, 9.0136 10.59775, 10.1206 10.59775, 10.1226C10.59775, 10.1226 9.32895, 10.1226 7.77845, 10.1226L4.95905, 10.1223L5.02705, 10.1083zM12.66045, 6.9795L12.66045, 3.8328L11.60595, 3.8328L10.55155, 3.8328L10.55155, 4.9364L10.55155, 6.04L9.08865, 3.5581C8.28395, 2.1931 7.61555, 1.0591 7.60335, 1.0381L7.58135, 1.0001L9.06805, 1.0001L10.55485, 1.0001L10.55485, 2.1026L10.55485, 3.2051L11.61225, 3.2051L12.66975, 3.2051L12.66975, 2.1026L12.66975, 1.0001L12.81985, 1.0001L12.97015, 1.0001L12.97015, 5.5633L12.97015, 10.1263L12.81985, 10.1263L12.66975, 10.1263L12.66975, 6.9796zM4.30765, 8.0654C4.03285, 8.0154 3.79325, 7.8884 3.63575, 7.7082C3.48445, 7.5352 3.39765, 7.3307 3.35745, 7.0531C3.34745, 6.9851 3.34645, 6.7943 3.34545, 3.9905L3.34545, 1L4.43915, 1L5.53275, 1L5.53275, 4.0115L5.53275, 7.0231L5.51975, 7.1001C5.46275, 7.4397 5.32895, 7.6811 5.10335, 7.8521C4.87925, 8.022 4.55575, 8.1095 4.31375, 8.0658z" fill="#D11C1C" class="Red" />
      </g>
    </g>
  </g>
</svg>

<?xml version="1.0" encoding="utf-8"?><!-- Uploaded to: SVG Repo, www.svgrepo.com, Generator: SVG Repo Mixer Tools -->
<svg fill="#FFFFFF" width="800px" height="800px" viewBox="0 0 14 14" role="img" focusable="false" aria-hidden="true" xmlns="http://www.w3.org/2000/svg"><path d="m 1.69275,12.9793 c -0.1508,-0.051 -0.3049,-0.1433 -0.39,-0.2325 -0.085,-0.089 -0.1532,-0.2209 -0.1828,-0.3536 -0.011,-0.049 -0.011,-0.088 -0.012,-0.8636 l -10e-5,-0.8126 0.2523,0 0.2524,0 10e-5,0.7584 c 10e-5,0.8342 0,0.7987 0.037,0.8706 0.037,0.069 0.111,0.1211 0.1959,0.1382 0.1048,0.021 0.2355,-0.047 0.2813,-0.1473 0.033,-0.072 0.032,-0.053 0.032,-0.8675 l 10e-5,-0.7524 0.2546,0 0.2546,0 0.3717,0.6309 0.3718,0.6308 0,-0.2764 0,-0.2764 0.2643,0 0.2643,0 0,0.7871 0,0.787 -0.2576,0 -0.2577,0 -0.3748,-0.6135 -0.3746,-0.6135 0,0.3116 c 0,0.3559 0,0.3522 -0.059,0.4678 -0.09,0.1849 -0.2854,0.3473 -0.5117,0.4247 l -0.056,0.019 -0.1473,0 -0.1471,0 -0.061,-0.021 z m 3.3481,-0.043 c -0.2434,-0.038 -0.4585,-0.1495 -0.6315,-0.3276 -0.1594,-0.1645 -0.259,-0.3591 -0.2975,-0.5821 -0.084,-0.4869 0.1612,-0.9686 0.6044,-1.1867 0.3107,-0.1528 0.6612,-0.1541 0.974,0 0.2262,0.109 0.4035,0.2852 0.5176,0.5142 0.025,0.051 0.063,0.1495 0.07,0.1818 l 0,0.019 -0.2363,0 -0.2362,0 -0.018,-0.034 c -0.045,-0.086 -0.1288,-0.1763 -0.2174,-0.2341 -0.1239,-0.081 -0.2536,-0.1156 -0.4031,-0.1082 -0.1689,0.01 -0.3232,0.079 -0.441,0.2016 -0.1243,0.1293 -0.1852,0.2798 -0.1852,0.4573 0,0.1899 0.069,0.3527 0.2033,0.4822 0.1019,0.098 0.2066,0.1517 0.3495,0.1791 0.048,0.01 0.1759,0.01 0.2288,0 0.1989,-0.039 0.3693,-0.1616 0.4651,-0.3361 l 0.022,-0.04 0.2337,0 c 0.1881,0 0.2337,0 0.2337,0.01 0,0.019 -0.045,0.139 -0.075,0.2003 -0.161,0.3289 -0.4765,0.5589 -0.8391,0.6117 -0.079,0.012 -0.2515,0.011 -0.3265,-3e-4 z m 2.3129,0.01 c -0.2673,-0.039 -0.4807,-0.1442 -0.6601,-0.3244 -0.4915,-0.4937 -0.4079,-1.316 0.1734,-1.7057 0.3234,-0.2166 0.7406,-0.2475 1.0904,-0.08 0.4408,0.2104 0.6904,0.6682 0.6278,1.1511 -0.055,0.4257 -0.3594,0.7872 -0.7694,0.9147 -0.1152,0.036 -0.1672,0.043 -0.3119,0.045 -0.073,0 -0.1403,8e-4 -0.1502,-7e-4 z m 0.2643,-0.4526 c 0.3284,-0.066 0.5619,-0.3848 0.526,-0.7189 -0.031,-0.2841 -0.2241,-0.5064 -0.5043,-0.5799 -0.066,-0.017 -0.1911,-0.022 -0.265,-0.01 -0.266,0.046 -0.4684,0.2318 -0.5392,0.4952 -0.014,0.051 -0.016,0.07 -0.016,0.1573 -2e-4,0.082 0,0.1079 0.013,0.152 0.044,0.1742 0.1438,0.3155 0.2917,0.4114 0.1442,0.093 0.3209,0.1262 0.4936,0.092 z m 4.0615,0.4526 c -0.1326,-0.019 -0.2566,-0.056 -0.3589,-0.1074 -0.6082,-0.3033 -0.8097,-1.0584 -0.432,-1.6197 0.1611,-0.2392 0.4079,-0.406 0.689,-0.4655 0.3449,-0.073 0.6879,0.016 0.9623,0.2512 0.1371,0.1172 0.2592,0.3018 0.3192,0.4822 0.022,0.067 0.048,0.1748 0.042,0.1797 0,0 -0.097,0.039 -0.2127,0.084 -0.1157,0.045 -0.2252,0.088 -0.2433,0.096 -0.018,0.01 -0.2778,0.1073 -0.5768,0.2203 -0.299,0.1128 -0.5473,0.2071 -0.5516,0.2095 -0.01,0 0.01,0.018 0.039,0.049 0.093,0.089 0.199,0.1437 0.3292,0.1705 0.063,0.013 0.182,0.013 0.2488,0 0.2166,-0.042 0.4049,-0.1972 0.4876,-0.4024 l 0.017,-0.042 0.2311,0 0.2311,0 -0.01,0.041 c -0.082,0.3704 -0.3702,0.6871 -0.7342,0.8067 -0.1215,0.04 -0.1838,0.05 -0.331,0.051 -0.071,9e-4 -0.1374,4e-4 -0.1473,0 z m 0.036,-1.3739 c 0.2875,-0.1075 0.5304,-0.1983 0.5397,-0.2019 l 0.017,-0.01 -0.032,-0.027 c -0.1298,-0.1111 -0.2834,-0.164 -0.4556,-0.157 -0.1593,0.01 -0.2899,0.057 -0.4098,0.1577 -0.1172,0.099 -0.2096,0.268 -0.225,0.4127 l 0,0.035 0.023,-0.01 c 0.013,0 0.2586,-0.096 0.546,-0.2037 z m -2.983,0.2628 0,-1.1089 0.4342,0 c 0.4103,0 0.4376,0 0.5001,0.015 0.1764,0.034 0.3195,0.093 0.4596,0.192 0.073,0.051 0.2067,0.185 0.2599,0.2598 0.052,0.073 0.1224,0.2129 0.1503,0.2985 0.1179,0.3625 0.042,0.7627 -0.2003,1.051 -0.1873,0.2232 -0.4592,0.3649 -0.7536,0.3926 -0.038,0 -0.2339,0.01 -0.4581,0.01 l -0.3921,0 0,-1.1089 z m 0.871,0.6615 c 0.2579,-0.053 0.4526,-0.2379 0.5213,-0.4949 0.014,-0.052 0.016,-0.069 0.016,-0.1602 0,-0.091 0,-0.1087 -0.015,-0.1597 -0.053,-0.1991 -0.1763,-0.3509 -0.3553,-0.4383 -0.034,-0.016 -0.088,-0.037 -0.121,-0.046 -0.058,-0.015 -0.067,-0.016 -0.2477,-0.018 l -0.1878,0 0,0.6683 0,0.6682 0.1728,0 c 0.119,0 0.1866,-0.01 0.2175,-0.013 z m -6.1881,-1.4992 0,-0.2764 0.2644,0 0.2643,0 0,0.2764 0,0.2763 -0.2643,0 -0.2644,0 0,-0.2763 z m -2.3852,-5.4343 0,-4.5632 0.1502,0 0.1502,0 0,3.2301 c 0,3.5786 0,3.2528 0.039,3.4548 0.088,0.4125 0.27,0.8253 0.5059,1.1487 0.1853,0.254 0.4189,0.4777 0.7011,0.6713 0.3804,0.2611 0.8033,0.457 1.3251,0.6138 0.015,0 -0.4035,0.01 -1.4255,0.01 l -1.4464,6e-4 0,-4.563 z m 4.0003,4.5479 c 0.5032,-0.1066 1.0421,-0.3735 1.4851,-0.7352 0.5723,-0.4676 0.9292,-1.017 1.048,-1.6139 0.031,-0.1569 0.03,-0.091 0.033,-1.368 l 0,-1.188 1.5006,2.4565 c 0.8253,1.3511 1.5005,2.4581 1.5005,2.4601 0,0 -1.2688,0 -2.8193,0 l -2.8194,-3e-4 0.068,-0.014 z m 7.6299,-3.1316 0,-3.1467 -1.0545,0 -1.0544,0 0,1.1036 0,1.1036 -1.4629,-2.4819 c -0.8047,-1.365 -1.4731,-2.499 -1.4853,-2.52 l -0.022,-0.038 1.4867,0 1.4868,0 0,1.1025 0,1.1025 1.0574,0 1.0575,0 0,-1.1025 0,-1.1025 0.1501,0 0.1503,0 0,4.5632 0,4.563 -0.1503,0 -0.1501,0 0,-3.1467 z m -8.3528,1.0859 c -0.2748,-0.05 -0.5144,-0.177 -0.6719,-0.3572 -0.1513,-0.173 -0.2381,-0.3775 -0.2783,-0.6551 -0.01,-0.068 -0.011,-0.2588 -0.012,-3.0626 l 0,-2.9905 1.0937,0 1.0936,0 0,3.0115 0,3.0116 -0.013,0.077 c -0.057,0.3396 -0.1908,0.581 -0.4164,0.752 -0.2241,0.1699 -0.5476,0.2574 -0.7896,0.2137 z"/></svg>
